X: 2641
T: Bang Up
R: slide
M: 12/8
K: Dmajor
A|:d2 d f2 f a2 a f2 d|g2 e f2 d cde ABc|
d2 d f2 f a2 a f2 d|g2 e f2 d cBA d2 A:|
|:F2 A E2 A F2 A d2 c|B2 d A2 d G2 e cBA|
F2 A E2 A F2 A d2 c|Bcd ABc d3 d2 A:|
|:f2 e d2 c B2 A G2 F|G2 A B2 e dcB A2 A|
f2 e d2 c B2 A G2 F|1 G2 B A2 F GFE D2 A:|2 G2 B A2 F GFE D3||

